X: 676
T: Evcârâ Seyir
C: Şefik Gürmeriç
O: Turkey
F: http://compmusic.upf.edu/node/140
N: evcara--seyir--sofyan--1--sefik_gurmeric
N: makam= evcara
N: form= seyir
N: usul= sofyan = 4/4
M: 4/4
L: 1/16
K: C _1/4B ^f ^c ^A
Q: 1/4=60
%%MIDI tuningsystem comma53
f12 z4  | f^efg f2e2 d4 =a4  | g3f ^e2f2 e2f2 g=agf  | \
w:   |   |   | 
f12 z4  | 
w:   | 
f6=a2 ^g4 b4  | z2^g2 =a2b2 a3g f4  | \
w:   |   | 
z2=a2 g2f2 ^e6d2  | c3B A2B2 c8  | 
w:   |   | 
z2d2 c2B2 A3G F2c2  | z2A4G2 G3F ^E3F  | \
w:   |   | 
^E2F2 GAGF F8  | 
w:   | 
|


